X: 41009
T: Trip To Galway, The
R: jig
M: 6/8
K: Dminor
c|:AFD DFA|cdc AGF|E/F/GE CDC|EFG Ac=B|
AFD DFG|A=Bc d2e|fed edc|1 Ad^c d2 c:|2 Ad^c d2 e||
|:fed afd|d/e/fg afd|edc gec|c/d/ef gfe|
fed afd|fed cAG|FGA c=Bc|1 Ad^c d2 e:|2 Ad^c d2 c||

